static/img/in-field/inputs-success-dark.svg

<svg width="468" height="95" viewBox="0 0 468 95" fill="none" xmlns="http://www.w3.org/2000/svg">
<rect x="1" y="1.6665" width="466" height="54" rx="3" fill="black"/>
<path d="M22.9717 37.6665H21.1348V23.5728H16.1934V21.9614H27.8916V23.5728H22.9717V37.6665ZM34.7803 25.6782C35.7829 25.6782 36.6423 25.9002 37.3584 26.3442C38.0745 26.7882 38.6224 27.4113 39.002 28.2134C39.3815 29.0083 39.5713 29.9393 39.5713 31.0063V32.1128H31.4395C31.4609 33.495 31.8047 34.5477 32.4707 35.271C33.1367 35.9943 34.0749 36.356 35.2852 36.356C36.0299 36.356 36.6888 36.2879 37.2617 36.1519C37.8346 36.0158 38.429 35.8153 39.0449 35.5503V37.1187C38.4505 37.3836 37.8597 37.577 37.2725 37.6987C36.6924 37.8205 36.0049 37.8813 35.21 37.8813C34.0785 37.8813 33.0902 37.6522 32.2451 37.1938C31.4072 36.7284 30.7555 36.048 30.29 35.1528C29.8245 34.2576 29.5918 33.1619 29.5918 31.8657C29.5918 30.5981 29.8031 29.5024 30.2256 28.5786C30.6553 27.6476 31.2568 26.9315 32.0303 26.4302C32.8109 25.9289 33.7275 25.6782 34.7803 25.6782ZM34.7588 27.1392C33.8063 27.1392 33.0472 27.4507 32.4814 28.0737C31.9157 28.6968 31.5791 29.5669 31.4717 30.6841H37.7021C37.695 29.9823 37.584 29.3664 37.3691 28.8364C37.1615 28.2993 36.8428 27.884 36.4131 27.5903C35.9834 27.2896 35.432 27.1392 34.7588 27.1392ZM45.6543 31.6401L41.583 25.8931H43.624L46.7285 30.4263L49.8223 25.8931H51.8418L47.7705 31.6401L52.0674 37.6665H50.0264L46.7285 32.8647L43.4092 37.6665H41.3896L45.6543 31.6401ZM58.4189 36.4204C58.7126 36.4204 59.0133 36.3953 59.3213 36.3452C59.6292 36.2951 59.8799 36.2342 60.0732 36.1626V37.5483C59.8656 37.6414 59.5755 37.7202 59.2031 37.7847C58.8379 37.8491 58.4798 37.8813 58.1289 37.8813C57.5059 37.8813 56.9401 37.7739 56.4316 37.5591C55.9232 37.3371 55.515 36.9647 55.207 36.4419C54.9062 35.9191 54.7559 35.1958 54.7559 34.272V27.2896H53.0801V26.4194L54.7666 25.7212L55.4756 23.1646H56.5498V25.8931H59.998V27.2896H56.5498V34.2183C56.5498 34.9559 56.7181 35.5073 57.0547 35.8726C57.3984 36.2378 57.8532 36.4204 58.4189 36.4204ZM68.9414 37.6665V21.9614H70.7676V37.6665H68.9414ZM80.6426 25.6782C82.0391 25.6782 83.0954 26.022 83.8115 26.7095C84.5277 27.3898 84.8857 28.4855 84.8857 29.9966V37.6665H83.124V30.1147C83.124 29.1336 82.8984 28.3996 82.4473 27.9126C82.0033 27.4256 81.3193 27.1821 80.3955 27.1821C79.0921 27.1821 78.1755 27.5509 77.6455 28.2886C77.1156 29.0262 76.8506 30.0968 76.8506 31.5005V37.6665H75.0674V25.8931H76.5068L76.7754 27.5903H76.8721C77.1227 27.175 77.4414 26.8276 77.8281 26.5483C78.2148 26.2619 78.6481 26.047 79.1279 25.9038C79.6077 25.7534 80.1126 25.6782 80.6426 25.6782ZM94.3418 25.6782C95.8099 25.6782 96.9808 26.1831 97.8545 27.1929C98.7282 28.2026 99.165 29.7209 99.165 31.7476C99.165 33.0868 98.9645 34.2111 98.5635 35.1206C98.1624 36.0301 97.5967 36.7176 96.8662 37.1831C96.1429 37.6486 95.2871 37.8813 94.2988 37.8813C93.6758 37.8813 93.1279 37.799 92.6553 37.6343C92.1826 37.4696 91.778 37.2476 91.4414 36.9683C91.1048 36.689 90.8255 36.3846 90.6035 36.0552H90.4746C90.4961 36.3345 90.5212 36.6711 90.5498 37.0649C90.5856 37.4588 90.6035 37.8026 90.6035 38.0962V42.9302H88.8096V25.8931H90.2812L90.5176 27.6333H90.6035C90.8327 27.2752 91.112 26.9494 91.4414 26.6558C91.7708 26.355 92.1719 26.1187 92.6445 25.9468C93.1243 25.7677 93.6901 25.6782 94.3418 25.6782ZM94.0303 27.1821C93.2139 27.1821 92.555 27.3397 92.0537 27.6548C91.5596 27.9699 91.1979 28.4425 90.9688 29.0728C90.7396 29.6958 90.6178 30.48 90.6035 31.4253V31.769C90.6035 32.7645 90.7109 33.606 90.9258 34.2935C91.1478 34.981 91.5094 35.5037 92.0107 35.8618C92.5192 36.2199 93.1995 36.3989 94.0518 36.3989C94.7822 36.3989 95.391 36.202 95.8779 35.8081C96.3649 35.4142 96.7266 34.8664 96.9629 34.1646C97.2064 33.4556 97.3281 32.6427 97.3281 31.7261C97.3281 30.3368 97.056 29.2339 96.5117 28.4175C95.9746 27.5939 95.1475 27.1821 94.0303 27.1821ZM112.252 25.8931V37.6665H110.791L110.533 36.0122H110.437C110.193 36.4204 109.878 36.7642 109.491 37.0435C109.104 37.3228 108.668 37.5304 108.181 37.6665C107.701 37.8097 107.189 37.8813 106.645 37.8813C105.714 37.8813 104.933 37.731 104.303 37.4302C103.673 37.1294 103.196 36.6639 102.874 36.0337C102.559 35.4035 102.401 34.5942 102.401 33.606V25.8931H104.206V33.4771C104.206 34.4582 104.428 35.1922 104.872 35.6792C105.316 36.159 105.993 36.3989 106.902 36.3989C107.776 36.3989 108.471 36.2342 108.986 35.9048C109.509 35.5754 109.885 35.092 110.114 34.4546C110.343 33.8101 110.458 33.0223 110.458 32.0913V25.8931H112.252ZM120.075 36.4204C120.369 36.4204 120.67 36.3953 120.978 36.3452C121.285 36.2951 121.536 36.2342 121.729 36.1626V37.5483C121.522 37.6414 121.232 37.7202 120.859 37.7847C120.494 37.8491 120.136 37.8813 119.785 37.8813C119.162 37.8813 118.596 37.7739 118.088 37.5591C117.579 37.3371 117.171 36.9647 116.863 36.4419C116.562 35.9191 116.412 35.1958 116.412 34.272V27.2896H114.736V26.4194L116.423 25.7212L117.132 23.1646H118.206V25.8931H121.654V27.2896H118.206V34.2183C118.206 34.9559 118.374 35.5073 118.711 35.8726C119.055 36.2378 119.509 36.4204 120.075 36.4204Z" fill="white"/>
<rect x="1" y="1.6665" width="466" height="54" rx="3" stroke="#353A40" stroke-width="2"/>
<g clip-path="url(#clip0_7345_83050)">
<path d="M3.84375 80.1664C3.84375 78.5118 4.16966 76.8733 4.80287 75.3446C5.43608 73.8159 6.36419 72.4269 7.5342 71.2569C8.70422 70.0868 10.0932 69.1587 11.6219 68.5255C13.1506 67.8923 14.7891 67.5664 16.4437 67.5664C18.0984 67.5664 19.7369 67.8923 21.2656 68.5255C22.7943 69.1587 24.1833 70.0868 25.3533 71.2569C26.5233 72.4269 27.4514 73.8159 28.0846 75.3446C28.7178 76.8733 29.0437 78.5118 29.0437 80.1664C29.0437 81.8211 28.7178 83.4595 28.0846 84.9882C27.4514 86.5169 26.5233 87.9059 25.3533 89.076C24.1833 90.246 22.7943 91.1741 21.2656 91.8073C19.7369 92.4405 18.0984 92.7664 16.4437 92.7664C14.7891 92.7664 13.1506 92.4405 11.6219 91.8073C10.0932 91.1741 8.70422 90.246 7.5342 89.076C6.36419 87.9059 5.43608 86.5169 4.80287 84.9882C4.16966 83.4595 3.84375 81.8211 3.84375 80.1664" fill="#00CC2A"/>
<path d="M16.4438 68.6914C22.8001 68.6914 27.9188 73.8102 27.9188 80.1664C27.9188 86.5227 22.8001 91.6414 16.4438 91.6414C10.0876 91.6414 4.9126 86.5227 4.9126 80.1664C4.9126 73.8102 10.0876 68.6914 16.4438 68.6914ZM16.4438 66.7227C8.9626 66.7227 2.94385 72.7414 2.94385 80.1664C2.94385 87.5914 8.9626 93.6102 16.3876 93.6102C23.8126 93.6102 29.8876 87.5914 29.8876 80.1664C29.8876 72.7414 23.8688 66.7227 16.4438 66.7227Z" fill="#227B30"/>
<path d="M22.2376 77.6353L20.8876 76.229L14.7001 82.3603L12.2251 79.8853L10.8188 81.2353L14.7001 85.1165L16.1063 83.7665L22.2376 77.6353Z" fill="white"/>
</g>
<path d="M48.1289 72.9614H50.0947L44.4336 88.6665H42.6289L37 72.9614H38.9336L42.543 83.1235C42.9583 84.2909 43.2878 85.4259 43.5312 86.5288C43.7891 85.3687 44.1257 84.2121 44.541 83.0591L48.1289 72.9614ZM59.4863 88.6665L59.1318 86.9907H59.0459C58.4587 87.7284 57.8714 88.2297 57.2842 88.4946C56.7041 88.7524 55.9772 88.8813 55.1035 88.8813C53.9362 88.8813 53.0195 88.5806 52.3535 87.979C51.6947 87.3774 51.3652 86.5216 51.3652 85.4116C51.3652 83.034 53.2666 81.7879 57.0693 81.6733L59.0674 81.6089V80.8784C59.0674 79.9546 58.8669 79.2743 58.4658 78.8374C58.0719 78.3934 57.4382 78.1714 56.5645 78.1714C55.5833 78.1714 54.4733 78.4722 53.2344 79.0737L52.6865 77.7095C53.2666 77.3944 53.9004 77.1473 54.5879 76.9683C55.2826 76.7892 55.9772 76.6997 56.6719 76.6997C58.0755 76.6997 59.1139 77.0112 59.7871 77.6343C60.4674 78.2573 60.8076 79.2563 60.8076 80.6313V88.6665H59.4863ZM55.458 87.4097C56.568 87.4097 57.4382 87.1053 58.0684 86.4966C58.7057 85.8879 59.0244 85.0356 59.0244 83.9399V82.8765L57.2412 82.9517C55.8232 83.0018 54.7992 83.2238 54.1689 83.6177C53.5459 84.0044 53.2344 84.6095 53.2344 85.4331C53.2344 86.0776 53.4277 86.5682 53.8145 86.9048C54.2083 87.2414 54.7562 87.4097 55.458 87.4097ZM66.5254 88.6665H64.7422V71.9517H66.5254V88.6665ZM72.3398 88.6665H70.5566V76.8931H72.3398V88.6665ZM70.4062 73.7026C70.4062 73.2944 70.5065 72.9972 70.707 72.811C70.9076 72.6177 71.1582 72.521 71.459 72.521C71.7454 72.521 71.9925 72.6177 72.2002 72.811C72.4079 73.0044 72.5117 73.3016 72.5117 73.7026C72.5117 74.1037 72.4079 74.4045 72.2002 74.605C71.9925 74.7983 71.7454 74.895 71.459 74.895C71.1582 74.895 70.9076 74.7983 70.707 74.605C70.5065 74.4045 70.4062 74.1037 70.4062 73.7026ZM84.3848 87.0874H84.2881C83.4645 88.2834 82.2327 88.8813 80.5928 88.8813C79.0531 88.8813 77.8535 88.355 76.9941 87.3022C76.1419 86.2495 75.7158 84.7528 75.7158 82.812C75.7158 80.8713 76.1455 79.3638 77.0049 78.2896C77.8643 77.2153 79.0602 76.6782 80.5928 76.6782C82.1898 76.6782 83.4144 77.2583 84.2666 78.4185H84.4062L84.3311 77.5698L84.2881 76.7427V71.9517H86.0713V88.6665H84.6211L84.3848 87.0874ZM80.8184 87.3882C82.0358 87.3882 82.9167 87.0588 83.4609 86.3999C84.0124 85.7339 84.2881 84.6632 84.2881 83.188V82.812C84.2881 81.1434 84.0088 79.9546 83.4502 79.2456C82.8988 78.5295 82.0143 78.1714 80.7969 78.1714C79.7513 78.1714 78.9492 78.5796 78.3906 79.396C77.8392 80.2052 77.5635 81.3511 77.5635 82.8335C77.5635 84.3374 77.8392 85.4725 78.3906 86.2388C78.9421 87.005 79.7513 87.3882 80.8184 87.3882ZM98.1729 88.6665H96.3467V72.9614H105.102V74.5835H98.1729V80.3306H104.683V81.9526H98.1729V88.6665ZM112.667 88.8813C110.927 88.8813 109.552 88.3514 108.542 87.2915C107.539 86.2316 107.038 84.7599 107.038 82.8765C107.038 80.9787 107.504 79.4712 108.435 78.354C109.373 77.2368 110.63 76.6782 112.205 76.6782C113.68 76.6782 114.848 77.1652 115.707 78.1392C116.566 79.106 116.996 80.3843 116.996 81.9741V83.1021H108.886C108.922 84.4842 109.269 85.5334 109.928 86.2495C110.594 86.9657 111.528 87.3237 112.731 87.3237C113.999 87.3237 115.252 87.0588 116.491 86.5288V88.1187C115.861 88.3908 115.263 88.5841 114.697 88.6987C114.139 88.8205 113.462 88.8813 112.667 88.8813ZM112.184 78.1714C111.238 78.1714 110.483 78.4793 109.917 79.0952C109.358 79.7111 109.029 80.5633 108.929 81.6519H115.084C115.084 80.5275 114.833 79.6681 114.332 79.0737C113.831 78.4722 113.115 78.1714 112.184 78.1714ZM125.271 88.8813C123.53 88.8813 122.155 88.3514 121.146 87.2915C120.143 86.2316 119.642 84.7599 119.642 82.8765C119.642 80.9787 120.107 79.4712 121.038 78.354C121.976 77.2368 123.233 76.6782 124.809 76.6782C126.284 76.6782 127.451 77.1652 128.311 78.1392C129.17 79.106 129.6 80.3843 129.6 81.9741V83.1021H121.489C121.525 84.4842 121.872 85.5334 122.531 86.2495C123.197 86.9657 124.132 87.3237 125.335 87.3237C126.603 87.3237 127.856 87.0588 129.095 86.5288V88.1187C128.465 88.3908 127.867 88.5841 127.301 88.6987C126.742 88.8205 126.065 88.8813 125.271 88.8813ZM124.787 78.1714C123.842 78.1714 123.086 78.4793 122.521 79.0952C121.962 79.7111 121.632 80.5633 121.532 81.6519H127.688C127.688 80.5275 127.437 79.6681 126.936 79.0737C126.434 78.4722 125.718 78.1714 124.787 78.1714ZM140.914 87.0874H140.817C139.994 88.2834 138.762 88.8813 137.122 88.8813C135.582 88.8813 134.383 88.355 133.523 87.3022C132.671 86.2495 132.245 84.7528 132.245 82.812C132.245 80.8713 132.675 79.3638 133.534 78.2896C134.394 77.2153 135.59 76.6782 137.122 76.6782C138.719 76.6782 139.944 77.2583 140.796 78.4185H140.936L140.86 77.5698L140.817 76.7427V71.9517H142.601V88.6665H141.15L140.914 87.0874ZM137.348 87.3882C138.565 87.3882 139.446 87.0588 139.99 86.3999C140.542 85.7339 140.817 84.6632 140.817 83.188V82.812C140.817 81.1434 140.538 79.9546 139.979 79.2456C139.428 78.5295 138.544 78.1714 137.326 78.1714C136.281 78.1714 135.479 78.5796 134.92 79.396C134.368 80.2052 134.093 81.3511 134.093 82.8335C134.093 84.3374 134.368 85.4725 134.92 86.2388C135.471 87.005 136.281 87.3882 137.348 87.3882ZM152.121 76.6997C153.668 76.6997 154.868 77.2297 155.72 78.2896C156.579 79.3423 157.009 80.8354 157.009 82.769C157.009 84.7026 156.576 86.2065 155.709 87.2808C154.85 88.3478 153.654 88.8813 152.121 88.8813C151.355 88.8813 150.653 88.7417 150.016 88.4624C149.385 88.1759 148.855 87.7391 148.426 87.1519H148.297L147.921 88.6665H146.643V71.9517H148.426V76.0122C148.426 76.9217 148.397 77.7381 148.34 78.4614H148.426C149.257 77.2869 150.488 76.6997 152.121 76.6997ZM151.863 78.1929C150.646 78.1929 149.769 78.5438 149.231 79.2456C148.694 79.9403 148.426 81.1147 148.426 82.769C148.426 84.4233 148.701 85.6086 149.253 86.3247C149.804 87.0337 150.689 87.3882 151.906 87.3882C153.002 87.3882 153.818 86.9907 154.355 86.1958C154.893 85.3937 155.161 84.2443 155.161 82.7476C155.161 81.215 154.893 80.0728 154.355 79.3208C153.818 78.5688 152.988 78.1929 151.863 78.1929ZM167.625 88.6665L167.271 86.9907H167.185C166.597 87.7284 166.01 88.2297 165.423 88.4946C164.843 88.7524 164.116 88.8813 163.242 88.8813C162.075 88.8813 161.158 88.5806 160.492 87.979C159.833 87.3774 159.504 86.5216 159.504 85.4116C159.504 83.034 161.405 81.7879 165.208 81.6733L167.206 81.6089V80.8784C167.206 79.9546 167.006 79.2743 166.604 78.8374C166.211 78.3934 165.577 78.1714 164.703 78.1714C163.722 78.1714 162.612 78.4722 161.373 79.0737L160.825 77.7095C161.405 77.3944 162.039 77.1473 162.727 76.9683C163.421 76.7892 164.116 76.6997 164.811 76.6997C166.214 76.6997 167.253 77.0112 167.926 77.6343C168.606 78.2573 168.946 79.2563 168.946 80.6313V88.6665H167.625ZM163.597 87.4097C164.707 87.4097 165.577 87.1053 166.207 86.4966C166.844 85.8879 167.163 85.0356 167.163 83.9399V82.8765L165.38 82.9517C163.962 83.0018 162.938 83.2238 162.308 83.6177C161.685 84.0044 161.373 84.6095 161.373 85.4331C161.373 86.0776 161.566 86.5682 161.953 86.9048C162.347 87.2414 162.895 87.4097 163.597 87.4097ZM177.586 88.8813C175.882 88.8813 174.56 88.3586 173.622 87.313C172.691 86.2603 172.226 84.7743 172.226 82.855C172.226 80.8856 172.698 79.3638 173.644 78.2896C174.596 77.2153 175.95 76.6782 177.704 76.6782C178.27 76.6782 178.836 76.7391 179.401 76.8608C179.967 76.9826 180.411 77.1258 180.733 77.2905L180.186 78.8052C179.792 78.6476 179.362 78.5187 178.896 78.4185C178.431 78.311 178.019 78.2573 177.661 78.2573C175.269 78.2573 174.073 79.7827 174.073 82.8335C174.073 84.2801 174.363 85.3901 174.943 86.1636C175.531 86.937 176.397 87.3237 177.543 87.3237C178.524 87.3237 179.53 87.1125 180.562 86.6899V88.269C179.774 88.6772 178.782 88.8813 177.586 88.8813ZM185.377 82.6401C185.685 82.2033 186.154 81.6304 186.784 80.9214L190.587 76.8931H192.703L187.934 81.9097L193.036 88.6665H190.877L186.72 83.1021L185.377 84.2622V88.6665H183.615V71.9517H185.377V80.814C185.377 81.2078 185.348 81.8166 185.291 82.6401H185.377Z" fill="white"/>
<defs>
<clipPath id="clip0_7345_83050">
<rect width="27" height="27" fill="white" transform="translate(3 66.6665)"/>
</clipPath>
</defs>
</svg>

<svg width="468" height="95" fill="none" xmlns="http://www.w3.org/2000/svg"><rect x="1" y="1.667" width="466" height="54" rx="3" fill="#000"/><path d="M22.972 37.666h-1.837V23.573h-4.942V21.96h11.699v1.612h-4.92v14.093zM34.78 25.678c1.003 0 1.862.222 2.578.666.717.444 1.264 1.067 1.644 1.87.38.794.57 1.725.57 2.792v1.107h-8.133c.022 1.382.366 2.435 1.032 3.158.666.723 1.604 1.085 2.814 1.085.745 0 1.404-.068 1.977-.204a10.9 10.9 0 001.783-.602v1.569a8.682 8.682 0 01-1.773.58c-.58.122-1.267.182-2.062.182-1.132 0-2.12-.229-2.965-.687-.838-.466-1.49-1.146-1.955-2.041-.465-.895-.698-1.991-.698-3.287 0-1.268.211-2.364.634-3.287.43-.931 1.03-1.648 1.804-2.149.78-.501 1.697-.752 2.75-.752zm-.021 1.461c-.953 0-1.712.312-2.278.935-.565.623-.902 1.493-1.01 2.61h6.231c-.007-.702-.118-1.318-.333-1.848-.208-.537-.526-.952-.956-1.246-.43-.3-.981-.45-1.654-.45zm10.895 4.501l-4.071-5.747h2.041l3.104 4.533 3.094-4.533h2.02L47.77 31.64l4.297 6.026h-2.04l-3.299-4.801-3.319 4.801h-2.02l4.265-6.026zm12.765 4.78c.294 0 .594-.025.902-.075.308-.05.559-.11.752-.182v1.385c-.207.093-.498.172-.87.237a6.179 6.179 0 01-1.074.096 4.32 4.32 0 01-1.697-.322c-.509-.222-.917-.594-1.225-1.117-.3-.523-.451-1.246-.451-2.17V27.29H53.08v-.87l1.687-.699.709-2.556h1.074v2.728h3.448v1.397H56.55v6.928c0 .738.168 1.29.505 1.655.343.365.798.547 1.364.547zm10.522 1.246V21.962h1.827v15.706H68.94zm11.702-11.988c1.396 0 2.452.344 3.168 1.031.717.68 1.075 1.776 1.075 3.288v7.67h-1.762v-7.552c0-.981-.226-1.715-.677-2.202-.444-.487-1.128-.73-2.052-.73-1.303 0-2.22.368-2.75 1.106-.53.737-.794 1.808-.794 3.211v6.166h-1.784V25.893h1.44l.268 1.697h.097c.25-.415.57-.762.956-1.042.387-.286.82-.501 1.3-.644.48-.15.985-.226 1.515-.226zm13.699 0c1.468 0 2.639.505 3.513 1.515.873 1.01 1.31 2.528 1.31 4.555 0 1.339-.2 2.463-.602 3.373-.4.91-.966 1.597-1.697 2.062-.723.466-1.579.698-2.567.698-.623 0-1.171-.082-1.644-.247a3.878 3.878 0 01-1.214-.666 4.347 4.347 0 01-.838-.913h-.128l.075 1.01c.036.394.053.738.053 1.031v4.834H88.81V25.893h1.471l.237 1.74h.085c.23-.358.509-.684.838-.977.33-.301.73-.537 1.203-.71.48-.178 1.046-.268 1.698-.268zm-.312 1.504c-.816 0-1.475.158-1.976.473-.494.315-.856.787-1.085 1.418-.23.623-.351 1.407-.365 2.352v.344c0 .995.107 1.837.322 2.525.222.687.583 1.21 1.085 1.568.508.358 1.189.537 2.04.537.731 0 1.34-.197 1.827-.59.487-.395.849-.943 1.085-1.644.243-.71.365-1.522.365-2.439 0-1.39-.272-2.492-.816-3.308-.537-.824-1.365-1.236-2.482-1.236zm18.222-1.289v11.773h-1.461l-.258-1.654h-.096a3.427 3.427 0 01-.946 1.032c-.387.279-.823.486-1.31.623-.48.143-.992.214-1.536.214-.931 0-1.712-.15-2.342-.45a3.036 3.036 0 01-1.429-1.397c-.315-.63-.473-1.44-.473-2.428v-7.713h1.805v7.584c0 .981.222 1.715.666 2.202.444.48 1.121.72 2.03.72.874 0 1.569-.165 2.084-.494.523-.33.899-.813 1.128-1.45.229-.645.344-1.433.344-2.364v-6.198h1.794zm7.823 10.527c.294 0 .595-.025.903-.075.307-.05.558-.11.751-.182v1.385c-.207.093-.497.172-.87.237a6.174 6.174 0 01-1.074.096 4.317 4.317 0 01-1.697-.322c-.509-.222-.917-.594-1.225-1.117-.301-.523-.451-1.246-.451-2.17V27.29h-1.676v-.87l1.687-.699.709-2.556h1.074v2.728h3.448v1.397h-3.448v6.928c0 .738.168 1.29.505 1.655.344.365.798.547 1.364.547z" fill="#fff"/><rect x="1" y="1.667" width="466" height="54" rx="3" stroke="#353A40" stroke-width="2"/><g clip-path="url(#prefix__clip0_7345_83050)"><path d="M3.844 80.166a12.6 12.6 0 1125.2 0 12.6 12.6 0 01-25.2 0" fill="#00CC2A"/><path d="M16.444 68.691a11.451 11.451 0 0111.475 11.475 11.451 11.451 0 01-11.475 11.475c-6.356 0-11.531-5.118-11.531-11.475 0-6.356 5.175-11.475 11.53-11.475zm0-1.968c-7.481 0-13.5 6.018-13.5 13.443S8.963 93.61 16.388 93.61c7.425 0 13.5-6.019 13.5-13.444 0-7.425-6.02-13.443-13.444-13.443z" fill="#227B30"/><path d="M22.238 77.635l-1.35-1.406L14.7 82.36l-2.475-2.475-1.406 1.35 3.881 3.882 1.406-1.35 6.132-6.132z" fill="#fff"/></g><path d="M48.129 72.961h1.966l-5.661 15.706h-1.805L37 72.96h1.934l3.609 10.163a28.5 28.5 0 01.988 3.405c.258-1.16.595-2.317 1.01-3.47l3.588-10.098zm11.357 15.706l-.354-1.676h-.086c-.587.737-1.175 1.239-1.762 1.504-.58.257-1.307.386-2.18.386-1.168 0-2.084-.3-2.75-.902-.66-.602-.989-1.457-.989-2.567 0-2.378 1.902-3.624 5.704-3.739l1.998-.064v-.73c0-.924-.2-1.605-.601-2.042-.394-.444-1.028-.666-1.901-.666-.982 0-2.092.301-3.33.903l-.548-1.364a8.4 8.4 0 011.9-.742 8.318 8.318 0 012.085-.268c1.404 0 2.442.311 3.115.934.68.623 1.02 1.622 1.02 2.997v8.035h-1.32zm-4.028-1.257c1.11 0 1.98-.305 2.61-.913.638-.61.956-1.461.956-2.557v-1.064l-1.783.076c-1.418.05-2.442.272-3.072.666-.623.386-.935.992-.935 1.815 0 .645.194 1.135.58 1.472.394.336.942.505 1.644.505zm11.067 1.257h-1.783V71.951h1.783v16.715zm5.815 0h-1.783V76.892h1.783v11.773zm-1.934-14.964c0-.409.1-.706.301-.892.2-.193.451-.29.752-.29.286 0 .534.097.741.29.208.193.312.49.312.892 0 .4-.104.701-.312.902-.207.193-.455.29-.741.29-.3 0-.551-.097-.752-.29-.2-.2-.3-.501-.3-.902zm13.979 13.384h-.097c-.823 1.196-2.055 1.794-3.695 1.794-1.54 0-2.74-.526-3.599-1.579-.852-1.053-1.278-2.55-1.278-4.49 0-1.94.43-3.448 1.289-4.522.86-1.075 2.055-1.612 3.588-1.612 1.597 0 2.821.58 3.674 1.74h.14l-.076-.848-.043-.827v-4.791h1.783v16.715h-1.45l-.236-1.58zm-3.567.301c1.218 0 2.099-.33 2.643-.988.551-.666.827-1.737.827-3.212v-.376c0-1.669-.28-2.857-.838-3.566-.551-.716-1.436-1.075-2.653-1.075-1.046 0-1.848.409-2.406 1.225-.552.81-.828 1.955-.828 3.438 0 1.503.276 2.638.828 3.405.551.766 1.36 1.15 2.427 1.15zm17.355 1.278h-1.826V72.962h8.755v1.623h-6.93v5.747h6.511v1.622h-6.51v6.713zm14.494.215c-1.74 0-3.115-.53-4.125-1.59-1.003-1.06-1.504-2.531-1.504-4.415 0-1.897.466-3.405 1.397-4.522.938-1.117 2.195-1.676 3.77-1.676 1.475 0 2.643.487 3.502 1.461.859.967 1.289 2.245 1.289 3.835v1.128h-8.11c.036 1.382.383 2.431 1.042 3.147.666.717 1.6 1.075 2.803 1.075 1.268 0 2.521-.265 3.76-.795v1.59a9.11 9.11 0 01-1.794.58c-.558.121-1.235.182-2.03.182zm-.483-10.71c-.946 0-1.701.308-2.267.924-.559.616-.888 1.468-.988 2.557h6.155c0-1.124-.251-1.984-.752-2.578-.501-.602-1.217-.903-2.148-.903zm13.087 10.71c-1.741 0-3.116-.53-4.125-1.59-1.003-1.06-1.504-2.531-1.504-4.415 0-1.897.465-3.405 1.396-4.522.938-1.117 2.195-1.676 3.771-1.676 1.475 0 2.642.487 3.502 1.461.859.967 1.289 2.245 1.289 3.835v1.128h-8.111c.036 1.382.383 2.431 1.042 3.147.666.717 1.601 1.075 2.804 1.075 1.268 0 2.521-.265 3.76-.795v1.59a9.11 9.11 0 01-1.794.58c-.559.121-1.236.182-2.03.182zm-.484-10.71c-.945 0-1.701.308-2.266.924-.559.616-.889 1.468-.989 2.557h6.156c0-1.124-.251-1.984-.752-2.578-.502-.602-1.218-.903-2.149-.903zm16.127 8.916h-.097c-.823 1.196-2.055 1.794-3.695 1.794-1.54 0-2.739-.526-3.599-1.579-.852-1.053-1.278-2.55-1.278-4.49 0-1.94.43-3.448 1.289-4.522.86-1.075 2.056-1.612 3.588-1.612 1.597 0 2.822.58 3.674 1.74h.14l-.076-.848-.043-.827v-4.791h1.784v16.715h-1.451l-.236-1.58zm-3.566.301c1.217 0 2.098-.33 2.642-.988.552-.666.827-1.737.827-3.212v-.376c0-1.669-.279-2.857-.838-3.566-.551-.716-1.435-1.075-2.653-1.075-1.045 0-1.847.409-2.406 1.225-.552.81-.827 1.955-.827 3.438 0 1.503.275 2.638.827 3.405.551.766 1.361 1.15 2.428 1.15zM152.121 76.7c1.547 0 2.747.53 3.599 1.59.859 1.052 1.289 2.545 1.289 4.479 0 1.934-.433 3.438-1.3 4.512-.859 1.067-2.055 1.6-3.588 1.6-.766 0-1.468-.14-2.105-.419a3.992 3.992 0 01-1.59-1.31h-.129l-.376 1.514h-1.278V71.953h1.783v4.06c0 .91-.029 1.726-.086 2.45h.086c.831-1.175 2.062-1.762 3.695-1.762zm-.258 1.493c-1.217 0-2.094.35-2.632 1.053-.537.694-.805 1.869-.805 3.523 0 1.654.275 2.84.827 3.556.551.709 1.436 1.063 2.653 1.063 1.096 0 1.912-.397 2.449-1.192.538-.802.806-1.952.806-3.448 0-1.533-.268-2.675-.806-3.427-.537-.752-1.367-1.128-2.492-1.128zm15.762 10.474l-.354-1.676h-.086c-.588.737-1.175 1.239-1.762 1.504-.58.257-1.307.386-2.181.386-1.167 0-2.084-.3-2.75-.902-.659-.602-.988-1.457-.988-2.567 0-2.378 1.901-3.624 5.704-3.739l1.998-.064v-.73c0-.924-.2-1.605-.602-2.042-.393-.444-1.027-.666-1.901-.666-.981 0-2.091.301-3.33.903l-.548-1.364a8.394 8.394 0 011.902-.742 8.312 8.312 0 012.084-.268c1.403 0 2.442.311 3.115.934.68.623 1.02 1.622 1.02 2.997v8.035h-1.321zm-4.028-1.257c1.11 0 1.98-.305 2.61-.913.637-.61.956-1.461.956-2.557v-1.064l-1.783.076c-1.418.05-2.442.272-3.072.666-.623.386-.935.992-.935 1.815 0 .645.193 1.135.58 1.472.394.336.942.505 1.644.505zm13.989 1.471c-1.704 0-3.026-.522-3.964-1.568-.931-1.053-1.396-2.539-1.396-4.458 0-1.97.472-3.491 1.418-4.565.952-1.075 2.306-1.612 4.06-1.612.566 0 1.132.061 1.697.183.566.122 1.01.265 1.332.43l-.547 1.514a7.998 7.998 0 00-1.29-.387 5.564 5.564 0 00-1.235-.16c-2.392 0-3.588 1.525-3.588 4.576 0 1.446.29 2.556.87 3.33.588.773 1.454 1.16 2.6 1.16.981 0 1.987-.212 3.019-.634v1.579c-.788.408-1.78.612-2.976.612zm7.791-6.24c.308-.438.777-1.01 1.407-1.72l3.803-4.028h2.116l-4.769 5.017 5.102 6.757h-2.159l-4.157-5.565-1.343 1.16v4.404h-1.762V71.953h1.762v8.862c0 .394-.029 1.003-.086 1.826h.086z" fill="#fff"/><defs><clipPath id="prefix__clip0_7345_83050"><path fill="#fff" transform="translate(3 66.666)" d="M0 0h27v27H0z"/></clipPath></defs></svg>
